X:104
T:Ladies of Gormond
B:NFID.080a ("highland")
104ladies
S:JD
N:NF has |(3AAA| where I have |A2|.
L:1/8
M:C
R:hornpipe
Q:280
K:A=G
ec|:A2cA dBeA|A2cA dBGB|A2cA dBec|1 (3fga e<a cAAE:|\
[2 (3fga e<a cAAg||
aefd (3fga (3edc|df (3edc d<BBG|aefd (3fga (3edc|df (3edc c<AAg|
aefd (3fga (3edc|df (3edc d<BBa|A2cA dBec|(3fga e<a cAAE||

%%%

